!!!COM: Igor (Fyodorovich) Stravinsky
!!!OTL: [374_Str-7/57/3-1[65]1-4]
**kern	**dynam	**kern	**dynam	**kern	**dynam	**kern	**dynam	**kern	**dynam	**kern	**dynam	**kern	**dynam	**kern	**dynam	**kern	**dynam	**kern	**dynam	**kern	**dynam	**kern	**dynam	**kern	**dynam	**kern	**dynam	**kern	**dynam	**kern	**dynam	**kern	**dynam	**kern	**dynam	**kern	**dynam	**kern	**dynam
*grp:A	*grp:A	*grp:A	*grp:A	*grp:A	*grp:A	*grp:A	*grp:A	*grp:A	*grp:A	*grp:B	*grp:B	*grp:B	*grp:A	*grp:A	*grp:A	*grp:B	*grp:B	*grp:B	*grp:B	*grp:A	*grp:A	*grp:A	*grp:A	*grp:B	*grp:B	*grp:A	*grp:A	*grp:B	*grp:B	*grp:B	*grp:B	*grp:A	*grp:A	*grp:A	*grp:A	*grp:A	*grp:A	*grp:A	*grp:A
*part20	*	*part19	*	*part18	*part18	*part17	*part17	*part16	*part16	*part15	*part15	*part14	*part14	*part13	*part13	*part12	*part12	*part11	*part11	*part10	*	*part9	*part9	*part8	*part8	*part7	*part7	*part6	*part6	*part5	*part5	*part4	*part4	*part3	*part3	*part2	*part2	*part1	*part1
*staff20	*	*staff19	*	*staff18	*	*staff17	*	*staff16	*	*staff15	*	*staff14	*	*staff13	*	*staff12	*	*staff11	*	*staff10	*	*staff9	*	*staff8	*	*staff7	*	*staff6	*	*staff5	*	*staff4	*	*staff3	*	*staff2	*	*staff1	*
*I"Violoncello	*	*I"Viola	*	*I"Violin II	*	*I"Violin I	*	*I"Bass Drum	*	*I"Bass Tuba 1.2.	*	*I"Tenor Tuba in Bb 1.2.	*	*I"Horn in F 5.6.	*	*I"Horn in F 3.4.	*	*I"Horn in F 1.2.	*	*I"Clarinet in Bb 1.2.	*	*I"Clarinet Piccolo in D	*	*I"English Horn	*	*I"Oboe 3.4.	*	*I"Oboe 1.2.	*	*I"Alto Flute	*	*I"Flute 2.	*	*I"Flute 1.	*	*I"Piccolo 2.	*	*I"Piccolo 1.	*
*I'Vc.	*	*I'Vla.	*	*I'Vln. II	*	*I'Vln. I	*	*I'B. D.	*	*I'Bass Tba.	*	*I'T. Tba.	*	*I'Hn.	*	*I'Hn.	*	*I'Hn.	*	*I'Cl.	*	*I'D Cl.	*	*I'Eng. Hn.	*	*I'Ob.	*	*I'Ob.	*	*I'G Fl.	*	*I'Fl.	*	*I'Fl.	*	*I'Picc.	*	*I'Picc.	*
*	*	*	*	*	*	*	*	*stria1	*	*	*	*	*	*	*	*	*	*	*	*	*	*	*	*	*	*	*	*	*	*	*	*	*	*	*	*	*	*	*
*clefC4	*	*clefC3	*	*clefG2	*	*clefG2	*	*clefX	*	*clefF4	*	*clefG2	*	*clefG2	*	*clefG2	*	*clefG2	*	*clefG2	*	*clefG2	*	*clefG2	*	*clefG2	*	*clefG2	*	*clefG2	*	*clefG2	*	*clefG2	*	*clefG2	*	*clefG2	*
*	*	*	*	*	*	*	*	*	*	*	*	*ITrd1c2	*	*ITrd4c7	*	*ITrd4c7	*	*ITrd4c7	*	*ITrd1c2	*	*ITrd-1c-2	*	*ITrd4c7	*	*	*	*	*	*ITrd3c5	*	*	*	*	*	*ITrd-7c-12	*	*ITrd-7c-12	*
*k[]	*	*k[]	*	*k[]	*	*k[]	*	*k[]	*	*k[]	*	*k[b-e-]	*	*k[b-]	*	*k[b-]	*	*k[b-]	*	*k[b-e-]	*	*k[f#c#]	*	*k[b-]	*	*k[]	*	*k[]	*	*k[f#]	*	*k[]	*	*k[]	*	*k[]	*	*k[]	*
*M4/4	*	*M4/4	*	*M4/4	*	*M4/4	*	*M4/4	*	*M4/4	*	*M4/4	*	*M4/4	*	*M4/4	*	*M4/4	*	*M4/4	*	*M4/4	*	*M4/4	*	*M4/4	*	*M4/4	*	*M4/4	*	*M4/4	*	*M4/4	*	*M4/4	*	*M4/4	*
=63	=63	=63	=63	=63	=63	=63	=63	=63	=63	=63	=63	=63	=63	=63	=63	=63	=63	=63	=63	=63	=63	=63	=63	=63	=63	=63	=63	=63	=63	=63	=63	=63	=63	=63	=63	=63	=63	=63	=63
*	*	*	*	*^	*	*	*	*	*	*	*	*	*	*	*	*	*	*	*	*	*	*	*	*	*	*	*	*	*	*	*	*	*	*	*	*	*	*	*
!	!	!	!	!	!	!	!	!	!	!	!LO:TX:a:B:t=a2	!	!LO:TX:a:B:t=a2	!	!	!	!	!	!	!	!	!	!	!	!	!	!	!	!	!	!	!	!	!	!	!	!	!	!	!
!	!	!	!	!	!	!	!LO:TX:t=[[quarter]=166]	!	!	!	!	!	!	!	!	!	!	!	!	!	!LO:TX:a:B:t=I. II.	!	!	!	!	!	!	!	!	!	!	!	!	!	!	!	!	!	!	!
!	!LO:DY:ed=brack	!	!LO:DY:ed=brack	!	!	!LO:DY:ed=brack	!	!LO:DY:ed=brack	!LO:TX:a:i:t=secco	!	!LO:TX:a:B:t=Bassi	!LO:DY:ed=brack	!LO:TX:a:B:t=tenori (B)	!LO:DY:ed=brack	!	!	!	!	!	!	!	!LO:DY:ed=brack	!	!	!	!	!	!	!	!LO:DY:a	!	!	!	!	!	!	!	!	!LO:TX:t=[[quarter]=166]	!
4.g	f	4.ee	f	4.ee 4.gg	8g	f	4.gg	f	4Re\	mf	(2.G#X	mf	(2.a-X	mf	1r	.	1r	.	1r	.	4.eeX 4.gg	f	1r	.	[1att	f	2r	.	[1aatt	f	1r	.	1r	.	1r	.	1r	.	1r	.
.	.	.	.	.	8ryy	.	.	.	.	.	.	.	.	.	.	.	.	.	.	.	.	.	.	.	.	.	.	.	.	.	.	.	.	.	.	.	.	.	.	.
.	.	.	.	.	2.ryy	.	.	.	4r	.	.	>	.	>	.	.	.	.	.	.	.	.	.	.	.	.	.	.	.	.	.	.	.	.	.	.	.	.	.	.
8f	.	8dd	.	8r	.	.	8ff	.	.	.	.	.	.	.	.	.	.	.	.	.	8dd 8ff	.	.	.	.	.	.	.	.	.	.	.	.	.	.	.	.	.	.	.
8eL	.	8ccL	.	2r	.	.	8eeL	.	4r	.	.	.	.	.	.	.	.	.	.	.	8ccL 8eenX	.	.	.	.	.	4r	.	.	.	.	.	.	.	.	.	.	.	.	.
8d	.	8b-X	.	.	.	.	8dd	.	.	.	.	.	.	.	.	.	.	.	.	.	8b- 8dd	.	.	.	.	.	.	.	.	.	.	.	.	.	.	.	.	.	.	.
8e	.	8cc	.	.	.	.	8ee	.	4Re\	.	8Gn)	]]	8g)	]]	.	.	.	.	.	.	8cc 8ee	.	.	.	.	.	(8eL 8cc	f	.	.	.	.	.	.	.	.	.	.	.	.
8fJ	.	8ddJ	.	.	.	.	8ffJ	.	.	.	8r	.	8r	.	.	.	.	.	.	.	8ddJ 8ff)	.	.	.	.	.	8fJ 8dd	.	.	.	.	.	.	.	.	.	.	.	.	.
=64	=64	=64	=64	=64	=64	=64	=64	=64	=64	=64	=64	=64	=64	=64	=64	=64	=64	=64	=64	=64	=64	=64	=64	=64	=64	=64	=64	=64	=64	=64	=64	=64	=64	=64	=64	=64	=64	=64	=64	=64
4.g	.	4.ee	.	4.ee 4.gg	8g	.	4.gg	.	2r	.	(2.G#X	>	(2.a-X	>	1r	.	1r	.	1r	.	(4.eeX 4.gg	.	(4.gg	f	1attt_	.	4.g 4.ee	.	1aattt_	.	1r	.	1r	.	1r	.	1r	.	1r	.
.	.	.	.	.	4ryy	.	.	.	.	.	.	.	.	.	.	.	.	.	.	.	.	.	.	.	.	.	.	.	.	.	.	.	.	.	.	.	.	.	.	.
8f	.	8dd	.	8r	8ryy	.	8ff	.	.	.	.	.	.	.	.	.	.	.	.	.	8dd 8ff	.	8ffX	.	.	.	8f 8dd	.	.	.	.	.	.	.	.	.	.	.	.	.
8eL	.	8ccL	.	2r	2ryy	.	8eeL	.	4Re\	.	.	.	.	.	.	.	.	.	.	.	8ccL 8eenX	.	8eeL	.	.	.	8eL 8cc	.	.	.	.	.	.	.	.	.	.	.	.	.
8d	.	8b-X	.	.	.	.	8dd	.	.	.	.	.	.	.	.	.	.	.	.	.	8b- 8dd	.	8dd	.	.	.	8d 8b-X	.	.	.	.	.	.	.	.	.	.	.	.	.
8e	.	8cc	.	.	.	.	8ee	.	4r	.	8F#X)	]	8g-X)	]	.	.	.	.	.	.	8cc 8ee	.	8ee	.	.	.	8e 8cc	.	.	.	.	.	.	.	.	.	.	.	.	.
8fJ	.	8ddJ	.	.	.	.	8ffJ	.	.	.	8r	.	8r	.	.	.	.	.	.	.	8ddJ 8ff	.	8ffJ	.	.	.	8fJ 8dd	.	.	.	.	.	.	.	.	.	.	.	.	.
*	*	*	*	*v	*v	*	*	*	*	*	*	*	*	*	*	*	*	*	*	*	*	*	*	*	*	*	*	*	*	*	*	*	*	*	*	*	*	*	*	*
=65	=65	=65	=65	=65	=65	=65	=65	=65	=65	=65	=65	=65	=65	=65	=65	=65	=65	=65	=65	=65	=65	=65	=65	=65	=65	=65	=65	=65	=65	=65	=65	=65	=65	=65	=65	=65	=65	=65	=65
*	*	*	*	*	*	*	*	*	*	*^	*	*	*	*^	*	*	*	*	*	*	*	*	*	*	*	*	*	*^	*	*	*	*	*	*	*	*	*	*	*
*	*	*	*	*	*	*	*	*	*	*	*	*	*	*	*	*	*	*	*	*	*	*	*	*	*	*	*	*	*	*	*	*	*	*	*8va	*	*8va	*	*	*	*	*
4g	.	4ee	.	2r	.	4gg	.	4r	.	(4G#X	4G#~	.	(4a-X~	.	2r	1rc	.	1r	.	1r	.	4eeX 4gg	.	4gg	.	1attt]	.	4g 4ee	.	1aattt]	2rg	.	1r	.	2r	.	2r	.	2r	.	2r	.
8fL	.	8ddL	.	.	.	8ffL	.	4Re\	.	4A#X	4A#~	.	4b-~	.	.	.	.	.	.	.	.	8ddL 8ff	.	8ffXL	.	.	.	8fL 8dd	.	.	.	.	.	.	.	.	.	.	.	.	.	.
8eJ	.	8ccJ	.	.	.	8eeJ	.	.	.	.	.	.	.	.	.	.	.	.	.	.	.	8ccJ 8eenX	.	8eeJ	.	.	.	8eJ 8cc	.	.	.	.	.	.	.	.	.	.	.	.	.	.
4d	.	4b-X	.	4r	.	4dd	.	2r	.	4c#X	4c#~	.	4dd-X~	.	4r	.	mf	.	.	.	.	4b- 4dd)	.	4dd)	.	.	.	4d 4b-X)	.	.	4r	.	.	.	4r	.	4r	.	4r	.	4r	.
!	!	!	!	!	!	!	!	!	!	!	!	!	!	!	!LO:TX:a:i:t=cantabile	!	!	!	!	!	!	!	!	!	!	!	!	!	!	!	!	!	!	!	!	!	!	!	!	!	!	!
*	*	*	*	*Xtuplet	*	*	*	*	*	*	*	*	*	*	*	*	*	*	*	*	*	*	*	*	*	*	*	*	*	*	*Xtuplet	*	*	*	*	*	*Xtuplet	*	*	*	*	*
!	!	!	!	!	!	!	!	!	!	!	!	!	!	!	!	!	!	!	!	!	!	!	!	!	!	!	!	!	!	!	!	!	!	!	!	!	!	!	!LO:TX:t=P:problem:Tuplet missing stems. beams, and should be bracketed around beat 4. Score is notated differently than VHV.	!	!	!
!	!	!	!	!	!	!	!	!	!	!	!	!	!	!	!	!	!	!	!	!	!	!	!	!	!	!	!	!	!	!	!	!	!	!	!	!	!LO:TX:t=P:problem:Tuplet missing stems. beams, and should be bracketed around beat 4. Score is notated differently than VHV.	!	!	!	!	!
!	!	!	!	!LO:TX:t=P:problem:Tuplet missing stems. beams, and should be bracketed around beat 4. Score is notated differently than VHV.	!	!	!	!	!	!	!	!	!	!	!	!	!	!	!	!	!	!	!	!	!	!	!	!	!	!	!	!	!	!	!	!	!	!	!	!	!	!
*	*	*	*	*	*	*	*	*	*	*	*	*	*	*	*	*	*	*	*	*	*	*	*	*	*	*	*	*	*	*	*grp:A	*grp:A	*	*	*	*	*	*	*	*	*	*
!	!	!	!	!	!	!	!	!	!	!	!	!	!	!	!	!	!	!	!	!	!	!	!	!	!	!	!	!	!	!	!LO:TX:t=P:problem:Tuplet missing stems. beams, and should be bracketed around beat 4. Score is notated differently than VHV.	!	!	!	!	!	!	!	!	!	!	!
8eL	.	8ccL	.	16r	.	8eeL	.	.	.	4A#)	4A#~	.	4b-~)	.	(8eL	.	.	.	.	.	.	(8ccL 8ee	.	(8eeL	.	.	.	(8eL 8cc	.	.	16r	.	.	.	(8cccL	f	16r	f	16r	f	(8eeeL	f
*	*	*	*	*tuplet	*	*	*	*	*	*	*	*	*	*	*	*	*	*	*	*	*	*	*	*	*	*	*	*	*	*	*tuplet	*	*	*	*	*	*tuplet	*	*	*	*	*
.	.	.	.	(24aLL	.	.	.	.	.	.	.	.	.	.	.	.	.	.	.	.	.	.	.	.	.	.	.	.	.	.	(>24aLL	f	.	.	.	.	(24aaLL	.	(24aaLL	.	.	.
.	.	.	.	24b	.	.	.	.	.	.	.	.	.	.	.	.	.	.	.	.	.	.	.	.	.	.	.	.	.	.	24b	.	.	.	.	.	24bb	.	24bb	.	.	.
8fJ	.	8ddJ	.	.	.	8ffJ	.	.	.	.	.	.	.	.	8fJ	.	.	.	.	.	.	8ddJ 8ff	.	8ffJ	.	.	.	8fJ 8dd	.	.	.	.	.	.	8dddJ	.	.	.	.	.	8fffJ	.
.	.	.	.	24ccJ	.	.	.	.	.	.	.	.	.	.	.	.	.	.	.	.	.	.	.	.	.	.	.	.	.	.	24ccJ	.	.	.	.	.	24cccJ	.	24cccJ	.	.	.
!	!	!	!	!	!	!	!	!	!	!	!	!	!	!	!	!	!	!	!	!	!	!	!	!	!	!	!	!	!	!	!	!	!	!	!	!	!	!	!LO:TUP:num=3	!	!	!
.	.	.	.	64ddLL	.	.	.	.	.	.	.	.	.	.	.	.	.	.	.	.	.	.	.	.	.	.	.	.	.	.	64ddLL	.	.	.	.	.	64dddLL	.	64dddLL	.	.	.
.	.	.	.	64ee	.	.	.	.	.	.	.	.	.	.	.	.	.	.	.	.	.	.	.	.	.	.	.	.	.	.	64ee	.	.	.	.	.	64eee	.	64eee	.	.	.
.	.	.	.	64ff	.	.	.	.	.	.	.	.	.	.	.	.	.	.	.	.	.	.	.	.	.	.	.	.	.	.	64ff	.	.	.	.	.	64fff	.	64fff	.	.	.
.	.	.	.	64ggJJJ)	.	.	.	.	.	.	.	.	.	.	.	.	.	.	.	.	.	.	.	.	.	.	.	.	.	.	64ggJJJ	.	.	.	.	.	64gggJJJ	.	64gggJJJ	.	.	.
!!LO:REH:t=65
=66	=66	=66	=66	=66	=66	=66	=66	=66	=66	=66	=66	=66	=66	=66	=66	=66	=66	=66	=66	=66	=66	=66	=66	=66	=66	=66	=66	=66	=66	=66	=66	=66	=66	=66	=66	=66	=66	=66	=66	=66	=66	=66
*	*	*	*	*	*	*	*	*	*	*	*	*	*^	*	*	*	*	*	*	*	*	*	*	*	*	*	*	*	*	*	*	*	*	*	*	*	*	*	*	*	*	*
*	*	*	*	*	*	*	*	*	*	*	*	*	*	*	*	*	*	*	*	*	*	*	*	*	*	*	*	*	*	*	*	*grp:B	*grp:B	*	*	*	*	*	*	*grp:B	*grp:B	*	*
!	!	!LO:TX:a:t=non divisi	!	!	!	!	!	!	!	!	!	!	!	!	!	!	!	!	!	!	!	!	!	!	!	!	!	!	!	!	!	!	!	!	!	!	!	!	!	!	!	!	!
8g	.	4.g 4.a	.	4.gg	ff	4.ee 4.aa	ff	4Re\	.	(2.G#X	2.G#	.	(2.a-X	2.a-	.	4.g	1r	.	1r	.	1r	.	4.eeX 4.gg	.	4.gg	.	[1att	.	4.g 4.ee	.	[1aatt	[1aatt)	.	[1att	f	4.eee	.	8aaa)	.	[1aaatt)	.	[4ggg	.
8r	.	.	.	.	.	.	.	.	.	.	.	.	.	.	.	.	.	.	.	.	.	.	.	.	.	.	.	.	.	.	.	.	.	.	.	.	.	8r	.	.	.	.	.
4r	.	.	.	.	.	.	.	4r	.	.	.	.	.	.	.	.	.	.	.	.	.	.	.	.	.	.	.	.	.	.	.	.	.	.	.	.	.	4r	.	.	.	8gggL]	.
.	.	8f 8a	.	8ff	.	8dd 8aa	.	.	.	.	.	.	.	.	.	8f	.	.	.	.	.	.	8dd 8ff	.	8ffX	.	.	.	8f 8dd	.	.	.	.	.	.	8ddd	.	.	.	.	.	8fffJ	.
2r	.	8eL 8a	.	8eeL	.	8ccL 8aa	.	4r	.	.	.	.	.	.	.	8eL	.	.	.	.	.	.	8ccL 8eenX	.	8eeL	.	.	.	8eL 8cc	.	.	.	.	.	.	8cccL	.	(8eeeL	.	.	.	8eee)	.
.	.	8d 8a	.	8dd	.	8b-X 8aa	.	.	.	.	.	.	.	.	.	8d	.	.	.	.	.	.	8b- 8dd	.	8dd	.	.	.	8d 8b-X	.	.	.	.	.	.	8bb-X	.	8ddd	.	.	.	8r	.
.	.	8e 8a	.	8ee	.	8cc 8aa	.	4Re\	.	8Gn)	4Gn	.	8g)	4g	.	8e	.	.	.	.	.	.	8cc 8ee	.	8ee	.	.	.	8e 8cc	.	.	.	.	.	.	8ccc	.	8eee	.	.	.	4r	.
.	.	8fJ 8a	.	8ffJ	.	8ddJ 8aa	.	.	.	8r	.	.	8r	.	.	8fJ	.	.	.	.	.	.	8ddJ 8ff	.	8ffJ	.	.	.	8fJ 8dd	.	.	.	.	.	.	8dddJ	.	8fffJ	.	.	.	.	.
=67	=67	=67	=67	=67	=67	=67	=67	=67	=67	=67	=67	=67	=67	=67	=67	=67	=67	=67	=67	=67	=67	=67	=67	=67	=67	=67	=67	=67	=67	=67	=67	=67	=67	=67	=67	=67	=67	=67	=67	=67	=67	=67	=67
1r	.	4g 4a	.	4gg	.	4ee 4aa	.	2r	.	(2.G#X	2.G#	.	(2.a-X	2.a-	.	4g	1r	.	1r	.	1r	.	4eeX 4gg	.	4gg	.	1attt_	.	4g 4ee	.	1aattt_	1aattt_	.	1attt_	.	4eee	.	4ggg	.	1aaattt_	.	1r	.
.	.	8fL 8a	.	8ffL	.	8ddL 8aa	.	.	.	.	.	.	.	.	.	8fL	.	.	.	.	.	.	8ddL 8ff	.	8ffXL	.	.	.	8fL 8dd	.	.	.	.	.	.	8dddL	.	8fffL	.	.	.	.	.
.	.	8eJ 8a	.	8eeJ	.	8ccJ 8aa	.	.	.	.	.	.	.	.	.	8eJ	.	.	.	.	.	.	8ccJ 8eenX	.	8eeJ	.	.	.	8eJ 8cc	.	.	.	.	.	.	8cccJ	.	8eeeJ	.	.	.	.	.
.	.	4d 4a	.	4dd	.	4b-X 4aa	.	4Re\	.	.	.	.	.	.	.	4d)	.	.	.	.	.	.	4b- 4dd)	.	4dd)	.	.	.	4d 4b-X)	.	.	.	.	.	.	4bb-X)	.	4ddd)	.	.	.	.	.
.	.	8eL 8a	.	8eeL	.	8ccL 8aa	.	4r	.	8F#X)	4F#	.	8g-X)	4g-	.	(8eL	.	.	.	.	.	.	(8ccL 8ee	.	(8eeL	.	.	.	(8eL 8cc	.	.	.	.	.	.	(8cccL	.	(8eeeL	.	.	.	.	.
.	.	8fJ 8a	.	8ffJ	.	8ddJ 8aa	.	.	.	8r	.	.	8r	.	.	8fJ	.	.	.	.	.	.	8ddJ 8ff	.	8ffJ	.	.	.	8fJ 8dd	.	.	.	.	.	.	8dddJ	.	8fffJ	.	.	.	.	.
=68	=68	=68	=68	=68	=68	=68	=68	=68	=68	=68	=68	=68	=68	=68	=68	=68	=68	=68	=68	=68	=68	=68	=68	=68	=68	=68	=68	=68	=68	=68	=68	=68	=68	=68	=68	=68	=68	=68	=68	=68	=68	=68	=68
1r	.	4g 4a	.	4gg	.	4ee 4aa	.	4r	.	(2.G#X	2.G#	.	(2.a-X	2.a-	.	4g	2r	.	[1d~ [1dd	ff	[1d~ [1dd	ff	4eeX 4gg	.	4gg	.	1attt_	.	4g 4ee	.	1aattt_	1aattt_	.	1attt_	.	4eee	.	4ggg	.	1aaattt_	.	2r	.
.	.	8fL 8a	.	8ffL	.	8ddL 8aa	.	4Re\	.	.	.	.	.	.	.	8fL	.	.	.	.	.	.	8ddL 8ff	.	8ffXL	.	.	.	8fL 8dd	.	.	.	.	.	.	8dddL	.	8fffL	.	.	.	.	.
.	.	8eJ 8a	.	8eeJ	.	8ccJ 8aa	.	.	.	.	.	.	.	.	.	8eJ	.	.	.	.	.	.	8ccJ 8eenX	.	8eeJ	.	.	.	8eJ 8cc	.	.	.	.	.	.	8cccJ	.	8eeeJ	.	.	.	.	.
.	.	4d 4a	.	4dd	.	4b-X 4aa	.	2r	.	.	.	.	.	.	.	4d)	4r	.	.	.	.	.	4b- 4dd)	.	4dd)	.	.	.	4d 4b-X)	.	.	.	.	.	.	4bb-X)	.	4ddd)	.	.	.	4r	.
.	.	8eL 8a	.	8eeL	.	8ccL 8aa	.	.	.	8F#X)	4F#	.	8g-X)	4g-	.	(8cL	(8EL	f	.	.	.	.	(8ccL 8ee	.	(8eeL	.	.	.	(8eL 8cc	.	.	.	.	.	.	(8cccL	.	(8eeeL	.	.	.	(8eeeL	.
.	.	8fJ 8a	.	8ffJ	.	8ddJ 8aa	.	.	.	8r	.	.	8r	.	.	8dJ	8FJ	.	.	.	.	.	8ddJ 8ff	.	8ffJ	.	.	.	8fJ 8dd	.	.	.	.	.	.	8dddJ	.	8fffJ	.	.	.	8fffJ	.
=69	=69	=69	=69	=69	=69	=69	=69	=69	=69	=69	=69	=69	=69	=69	=69	=69	=69	=69	=69	=69	=69	=69	=69	=69	=69	=69	=69	=69	=69	=69	=69	=69	=69	=69	=69	=69	=69	=69	=69	=69	=69	=69	=69
1r	.	4.g 4.a	.	4.gg	.	4.ee 4.aa	.	4Re\	.	(4G#X	4G#~	.	(4a-X	4a-~	.	4.e	4.G	.	4d] 4dd]	.	4d] 4dd]	.	4.eeX 4.gg	.	4.gg	.	1attt_	.	4.g 4.ee	.	1aattt_	1aattt_	.	1attt_	.	4.eee	.	4.ggg	.	1aaattt_	.	[4ggg	.
.	.	.	.	.	.	.	.	4r	.	4A#X	4A#~	.	4b-	4b-~	.	.	.	.	4r	.	4r	.	.	.	.	.	.	.	.	.	.	.	.	.	.	.	.	.	.	.	.	8gggL]	.
.	.	8f 8a	.	8ff	.	8dd 8aa	.	.	.	.	.	.	.	.	.	8d	8F	.	.	.	.	.	8dd 8ff	.	8ffX	.	.	.	8f 8dd	.	.	.	.	.	.	8ddd	.	8fff	.	.	.	8fffJ	.
.	.	8eL 8a	.	8eeL	.	8ccL 8aa	.	4r	.	4c#X	4c#~	.	4dd-X	4dd-~	.	8cL	8EL	.	[2d~ [2dd	.	[2d~ [2dd	.	8ccL 8eenX	.	8eeL	.	.	.	8eL 8cc	.	.	.	.	.	.	8cccL	.	8eeeL	.	.	.	8eee)	.
.	.	8d 8a	.	8dd	.	8b-X 8aa	.	.	.	.	.	.	.	.	.	8B-	8D	.	.	.	.	.	8b- 8dd	.	8dd	.	.	.	8d 8b-X	.	.	.	.	.	.	8bb-X	.	8ddd	.	.	.	8r	.
.	.	8e 8a	.	8ee	.	8cc 8aa	.	4Re\	.	4A#)	4A#~	.	4b-)	4b-~	.	8c	8E	.	.	.	.	.	8cc 8ee	.	8ee	.	.	.	8e 8cc	.	.	.	.	.	.	8ccc	.	8eee	.	.	.	4r	.
.	.	8fJ 8a	.	8ffJ	.	8ddJ 8aa	.	.	.	.	.	.	.	.	.	8dJ)	8FJ)	.	.	.	.	.	8ddJ 8ff	.	8ffJ	.	.	.	8fJ 8dd	.	.	.	.	.	.	8dddJ	.	8fffJ	.	.	.	.	.
*	*	*	*	*	*	*	*	*	*	*	*	*	*	*	*	*	*	*	*	*	*	*	*	*	*	*	*	*	*	*	*	*	*	*	*	*X8va	*	*X8va	*	*	*	*	*
*	*	*	*	*	*	*	*	*	*	*v	*v	*	*	*	*	*v	*v	*	*	*	*	*	*	*	*	*	*	*	*	*	*v	*v	*	*	*	*	*	*	*	*	*	*	*
*	*	*	*	*	*	*	*	*	*	*	*	*v	*v	*	*	*	*	*	*	*	*	*	*	*	*	*	*	*	*	*	*	*	*	*	*	*	*	*	*	*
=	=	=	=	=	=	=	=	=	=	=	=	=	=	=	=	=	=	=	=	=	=	=	=	=	=	=	=	=	=	=	=	=	=	=	=	=	=	=	=
*-	*-	*-	*-	*-	*-	*-	*-	*-	*-	*-	*-	*-	*-	*-	*-	*-	*-	*-	*-	*-	*-	*-	*-	*-	*-	*-	*-	*-	*-	*-	*-	*-	*-	*-	*-	*-	*-	*-	*-
!!!system-decoration: [(s1,s2,s3,s4,s5,s6,s7,s8,s9,s10)][(s11,s12,s13,s14,s15)][s16][(s17,s18,s19,s20)]
!!!RDF**kern: > = above
!!!RDF**kern: < = below
!!!EED: Rafael Laurindo
!!!EEV: 2021/07/22
!!!EED2: Daniel Wright
!!!EEV2: 2022/02/10
